!! 00000] TT[00
!! NN
!!!OTL: Yintao hao chi shu nan zai
!!!ARE: Asia, China, Shanxi, Zuoquan
!! Ethnic Group: Han
!! I, 331, 1)
!!!SCT: C0095
!!!YEM: Copyright 1995, estate of Helmut Schaffrath.
**kern
*ICvox
*Ivox
*M2/4
*k[f#c#g#]
*A:
{8b
8cc#
8ee
8ff#
=1
4ee
4cc#
=2
8b
8cc#
8ee
8b
=3
2a}
=4
{8cc#
8cc#
8ee
8cc#
=5
4b
4cc#
=6
8f#
8e
4c#
=7
8e
8f#
8g#
8f#
=8
2e}
==
!!!AGN: Xiaodiao. Biaoda aiqing
!! etwas ueber gut schmeckende Kirschen und den schwierigen Baum.
!!    Vereinzelt Verzierungen.
!!!ONB: ESAC (Essen Associative Code) Database: CHINA
!!!AMT: simple duple
!!!AIN: vox
!!!EED: Helmut Schaffrath
!!!EEV: 1.0
*-
